X:131
T:Heather Breeze, The
T:Heathery Breeze
R:reel
D:Matt Molloy: Heathery Breeze
D:Paddy Moloney & Sean Potts: Tin Whistles
Z:id:hn-reel-131
M:C|
Q:1/2=95
K:G
DGBG dGBG|DFAF cFAF|DGBG dGBG| B3A BGAF|
~G3z DGBG|DFAF cFAF|DGBG dGBG| BdcA BGBd|
|~g3z gbag|~f3e fgaf| g2gf gbag|fdcA BGBd|
~g3f gbag|~f3e fgaf|defg azag|fdcA BGAF||
